X: 041262
T: Dan O'Connell's
S: "Johnny O'Leary of Sliabh Luachra" (#221)
Z: B.Black
L: 1/8
M: 2/4
R: polka
Q: 300
K: D
F2 ED|dc/d/ ed|cA AF|G2 GA/G/|
FD FE/D/|dc/d/ ed|cA BG/B/|A2 A2 :|
af/a/ ge|fd e/f/e/d/|c>d ef|g2 fg|
a>f g>e|fd e/f/e/d/|cA BG|A2 A2 :|
